img/icon-4.svg

<svg xmlns="http://www.w3.org/2000/svg" width="72.1" height="75.65"><path d="M49.55 57.23h-27c-.14-.55-.21-1.12-.21-1.7 0-2.33 1.16-4.52 3.1-5.83.14-.09.27-.21.37-.34 1.5-1.81 4.05-5.7 4.26-11.35.11-2.97 1.8-4.48 5.02-4.48h1.68c3.38 0 5.14 1.51 5.26 4.48.21 5.65 2.76 9.54 4.25 11.35.11.13.23.25.37.34a7.028 7.028 0 0 1 3.1 5.83c0 .58-.07 1.15-.2 1.7m-.71-10.27a15.55 15.55 0 0 1-3.32-9.08c-.22-5.79-4.66-7.85-8.75-7.85h-1.68c-3.98 0-8.3 2.06-8.52 7.85-.17 4.43-2.08 7.53-3.31 9.08a10.527 10.527 0 0 0-4.42 8.57c0 1.43.29 2.83.85 4.14.27.64.91 1.06 1.61 1.06h29.5c.7 0 1.33-.42 1.61-1.06.56-1.31.84-2.7.84-4.14 0-3.41-1.64-6.59-4.41-8.57M36.05 72.15c-1.77 0-3.21-1.44-3.21-3.21 0-1.76 1.44-3.2 3.21-3.2s3.2 1.44 3.2 3.2c0 1.77-1.43 3.21-3.2 3.21m0-9.91c-3.7 0-6.71 3.01-6.71 6.7 0 3.7 3.01 6.71 6.71 6.71 3.69 0 6.7-3.01 6.7-6.71 0-3.69-3.01-6.7-6.7-6.7M61.39 17.9c-.9 1.15-1.42 2.41-1.71 3.58a9.51 9.51 0 0 0-3.51-1.64c-.82-.19-1.65-.25-2.5-.21.86-.71 1.57-1.95 1.57-4.11v-3.67c.34-.04.69-.1 1.03-.18 1.38-.34 2.54-.98 3.48-1.7.31 1.18.85 2.42 1.76 3.56.68.85 1.5 1.55 2.44 2.12-1 .6-1.86 1.35-2.56 2.25m-9.65-9.94v7.56c0 1.56-.42 1.56-.83 1.56-1.17 0-2.96-.82-4.68-1.83-1.05-.63-2.08-1.33-2.92-1.95V7.27c2.19-1.63 5.7-3.77 7.6-3.77.41 0 .83 0 .83 1.55zm-12.52 4.66h-5.05c-.06 0-.1-.02-.11 0l-.01-4.63c0-.01.04-.04.12-.04h5.05c.06 0 .09.02.1.02l.02 4.61s-.04.04-.12.04m-8.9.68c-.13.09-.27.19-.41.29-1 .72-2.2 1.51-3.4 2.16-1.43.76-2.82 1.33-3.79 1.33-.41 0-.83 0-.83-1.56V5.05c0-1.55.42-1.55.83-1.55 1.89 0 5.4 2.14 7.6 3.77zm-9.14 7.07c-1.84-.61-3.63-.71-5.35-.29-1.38.34-2.54.98-3.49 1.7-.31-1.18-.84-2.42-1.75-3.57-.68-.84-1.5-1.54-2.45-2.11 1.01-.6 1.87-1.35 2.57-2.25.9-1.15 1.41-2.41 1.71-3.58.95.7 2.12 1.32 3.5 1.64.67.16 1.35.23 2.04.23.14 0 .29-.01.43-.02v3.4c0 3.17 1.51 4.36 2.8 4.8zm49.25-6.51c-2.86-.13-4.94-.97-6.17-2.49-1.39-1.72-1.44-3.97-1.38-4.98.02-.31.05-.51.05-.52.17-.95-.47-1.85-1.42-2.02-.23-.04-.46-.03-.68.02-.42.13-.8.43-1.02.86-.01.01-.11.19-.31.48-.57.84-1.96 2.54-4.06 3.06l-.2.03V5.05C55.24.36 51.92 0 50.91 0c-3.65 0-8.76 3.75-10.14 4.81a3.64 3.64 0 0 0-1.55-.36h-5.05c-.5 0-.98.1-1.41.28C31.25 3.58 26.28 0 22.72 0c-1.02 0-4.33.36-4.33 5.05v3.56c-.57.05-1.12.02-1.65-.1-2.13-.48-3.55-2.17-4.14-3.01-.2-.29-.31-.48-.31-.48-.23-.42-.6-.71-1.02-.84-.22-.04-.45-.05-.68-.01-.95.18-1.58 1.09-1.41 2.04 0 0 .04.2.06.52.07 1 .06 3.25-1.31 4.99-1.21 1.54-3.28 2.41-6.14 2.58-.32.02-.61.13-.85.29a1.743 1.743 0 0 0 .72 3.29c2.87.14 4.94.98 6.18 2.5 1.39 1.72 1.43 3.97 1.37 4.97-.02.32-.05.52-.05.53-.16.94.47 1.85 1.42 2.01.11.02.21.03.31.03.15 0 .28-.04.42-.07.4-.14.76-.42.98-.82 0-.01.1-.19.29-.47.57-.84 1.98-2.57 4.11-3.08 1.9-.46 4.06.14 6.41 1.78.79.55 1.89.36 2.44-.44.3-.44 1.08-4.58 2.88-5.89 1.4-1 3.28-1.33 5.61-.97.18 1.92-.15 3.51-1 4.74-1.65 2.38-4.83 2.8-4.9 2.81-.96.11-1.65.97-1.54 1.93.1.89.85 1.56 1.73 1.56.07 0 .13-.01.2-.02.19-.02 4.77-.56 7.36-4.25.05-.06.08-.13.12-.2.08.12.14.24.22.35 2.64 3.66 7.23 4.14 7.42 4.15.06.01.12.01.17.01.89 0 1.65-.68 1.74-1.58a1.75 1.75 0 0 0-1.57-1.91c-.03 0-3.22-.37-4.92-2.72-.9-1.25-1.25-2.88-1.06-4.88 2.28-.37 4.15-.08 5.54.89 1.84 1.28 2.67 5.43 2.99 5.87.56.78 1.65.96 2.44.4 2.33-1.67 4.48-2.3 6.39-1.87 2.14.48 3.56 2.19 4.15 3.03.18.27.29.44.3.46.21.4.56.66.95.8.14.04.28.08.43.08a1.752 1.752 0 0 0 1.72-2.08c0-.01-.03-.2-.05-.51-.08-1-.06-3.23 1.29-4.97 1.21-1.55 3.28-2.43 6.16-2.6.32-.02.62-.13.87-.31.52-.28.89-.81.92-1.45.04-.96-.7-1.78-1.67-1.83" fill="#43a9ff"/></svg>

<svg xmlns="http://www.w3.org/2000/svg" width="72.1" height="75.65" viewBox="0 0 72.1 75.65">
	<style type="text/css">
		.st0{fill:#43a9ff;}
	</style>
	<path class="st0" d="M49.55,57.23L22.55,57.23C22.41,56.68 22.34,56.11 22.34,55.53C22.34,53.2 23.5,51.01 25.44,49.7C25.58,49.61 25.71,49.49 25.81,49.36C27.31,47.55 29.86,43.66 30.07,38.01C30.18,35.04 31.87,33.53 35.09,33.53L36.77,33.53C40.15,33.53 41.91,35.04 42.03,38.01C42.24,43.66 44.79,47.55 46.28,49.36C46.39,49.49 46.51,49.61 46.65,49.7C48.59,51.01 49.75,53.19 49.75,55.53C49.75,56.11 49.68,56.68 49.55,57.23M48.84,46.96C47.61,45.41 45.69,42.32 45.52,37.88C45.3,32.09 40.86,30.03 36.77,30.03L35.09,30.03C31.11,30.03 26.79,32.09 26.57,37.88C26.4,42.31 24.49,45.41 23.26,46.96C20.49,48.94 18.84,52.12 18.84,55.53C18.84,56.96 19.13,58.36 19.69,59.67C19.96,60.31 20.6,60.73 21.3,60.73L50.8,60.73C51.5,60.73 52.13,60.31 52.41,59.67C52.97,58.36 53.25,56.97 53.25,55.53C53.25,52.12 51.61,48.94 48.84,46.96"></path>
	<path class="st0" d="M36.05,72.15C34.28,72.15 32.84,70.71 32.84,68.94C32.84,67.18 34.28,65.74 36.05,65.74C37.82,65.74 39.25,67.18 39.25,68.94C39.25,70.71 37.82,72.15 36.05,72.15M36.05,62.24C32.35,62.24 29.34,65.25 29.34,68.94C29.34,72.64 32.35,75.65 36.05,75.65C39.74,75.65 42.75,72.64 42.75,68.94C42.75,65.25 39.74,62.24 36.05,62.24"></path>
	<path class="st0" d="M61.39,17.9C60.49,19.05 59.97,20.31 59.68,21.48C58.73,20.78 57.56,20.16 56.17,19.84C55.35,19.65 54.52,19.59 53.67,19.63C54.53,18.92 55.24,17.68 55.24,15.52L55.24,11.85C55.58,11.81 55.93,11.75 56.27,11.67C57.65,11.33 58.81,10.69 59.75,9.97C60.06,11.15 60.6,12.39 61.51,13.53C62.19,14.38 63.01,15.08 63.95,15.65C62.95,16.25 62.09,17 61.39,17.9M51.74,7.96L51.74,11.62L51.74,15.52C51.74,17.08 51.32,17.08 50.91,17.08C49.74,17.08 47.95,16.26 46.23,15.25C45.18,14.62 44.15,13.92 43.31,13.3L43.31,13.04L43.31,7.27C45.5,5.64 49.01,3.5 50.91,3.5C51.32,3.5 51.74,3.5 51.74,5.05ZM39.22,12.62L34.17,12.62C34.11,12.62 34.07,12.6 34.06,12.62L34.05,7.99C34.05,7.98 34.09,7.95 34.17,7.95L39.22,7.95C39.28,7.95 39.31,7.97 39.32,7.97L39.34,12.58C39.34,12.58 39.3,12.62 39.22,12.62M30.32,13.3C30.19,13.39 30.05,13.49 29.91,13.59C28.91,14.31 27.71,15.1 26.51,15.75C25.08,16.51 23.69,17.08 22.72,17.08C22.31,17.08 21.89,17.08 21.89,15.52L21.89,11.32L21.89,7.43L21.89,7.36L21.89,5.05C21.89,3.5 22.31,3.5 22.72,3.5C24.61,3.5 28.12,5.64 30.32,7.27ZM21.18,20.37C19.34,19.76 17.55,19.66 15.83,20.08C14.45,20.42 13.29,21.06 12.34,21.78C12.03,20.6 11.5,19.36 10.59,18.21C9.91,17.37 9.09,16.67 8.14,16.1C9.15,15.5 10.01,14.75 10.71,13.85C11.61,12.7 12.12,11.44 12.42,10.27C13.37,10.97 14.54,11.59 15.92,11.91C16.59,12.07 17.27,12.14 17.96,12.14C18.1,12.14 18.25,12.13 18.39,12.12L18.39,15.52C18.39,18.69 19.9,19.88 21.19,20.32ZM70.43,13.86C67.57,13.73 65.49,12.89 64.26,11.37C62.87,9.65 62.82,7.4 62.88,6.39C62.9,6.08 62.93,5.88 62.93,5.87C63.1,4.92 62.46,4.02 61.51,3.85C61.28,3.81 61.05,3.82 60.83,3.87C60.41,4 60.03,4.3 59.81,4.73C59.8,4.74 59.7,4.92 59.5,5.21C58.93,6.05 57.54,7.75 55.44,8.27C55.37,8.28 55.3,8.29 55.24,8.3L55.24,5.05C55.24,0.36 51.92,0 50.91,0C47.26,0 42.15,3.75 40.77,4.81C40.3,4.59 39.78,4.45 39.22,4.45L34.17,4.45C33.67,4.45 33.19,4.55 32.76,4.73C31.25,3.58 26.28,0 22.72,0C21.7,0 18.39,0.36 18.39,5.05L18.39,8.61C17.82,8.66 17.27,8.63 16.74,8.51C14.61,8.03 13.19,6.34 12.6,5.5C12.4,5.21 12.29,5.02 12.29,5.02C12.06,4.6 11.69,4.31 11.27,4.18C11.05,4.14 10.82,4.13 10.59,4.17C9.64,4.35 9.01,5.26 9.18,6.21C9.18,6.21 9.22,6.41 9.24,6.73C9.31,7.73 9.3,9.98 7.93,11.72C6.72,13.26 4.65,14.13 1.79,14.3C1.47,14.32 1.18,14.43 0.94,14.59C0.41,14.87 0.03,15.41 0,16.06C-0.04,17.02 0.7,17.84 1.66,17.88C4.53,18.02 6.6,18.86 7.84,20.38C9.23,22.1 9.27,24.35 9.21,25.35C9.19,25.67 9.16,25.87 9.16,25.88C9,26.82 9.63,27.73 10.58,27.89C10.69,27.91 10.79,27.92 10.89,27.92C11.04,27.92 11.17,27.88 11.31,27.85C11.71,27.71 12.07,27.43 12.29,27.03C12.29,27.02 12.39,26.84 12.58,26.56C13.15,25.72 14.56,23.99 16.69,23.48C18.59,23.02 20.75,23.62 23.1,25.26C23.89,25.81 24.99,25.62 25.54,24.82C25.84,24.38 26.62,20.24 28.42,18.93C29.82,17.93 31.7,17.6 34.03,17.96C34.21,19.88 33.88,21.47 33.03,22.7C31.38,25.08 28.2,25.5 28.13,25.51C27.17,25.62 26.48,26.48 26.59,27.44C26.69,28.33 27.44,29 28.32,29C28.39,29 28.45,28.99 28.52,28.98C28.71,28.96 33.29,28.42 35.88,24.73C35.93,24.67 35.96,24.6 36,24.53C36.08,24.65 36.14,24.77 36.22,24.88C38.86,28.54 43.45,29.02 43.64,29.03C43.7,29.04 43.76,29.04 43.81,29.04C44.7,29.04 45.46,28.36 45.55,27.46C45.64,26.5 44.94,25.64 43.98,25.55C43.95,25.55 40.76,25.18 39.06,22.83C38.16,21.58 37.81,19.95 38,17.95C40.28,17.58 42.15,17.87 43.54,18.84C45.38,20.12 46.21,24.27 46.53,24.71C47.09,25.49 48.18,25.67 48.97,25.11C51.3,23.44 53.45,22.81 55.36,23.24C57.5,23.72 58.92,25.43 59.51,26.27C59.69,26.54 59.8,26.71 59.81,26.73C60.02,27.13 60.37,27.39 60.76,27.53C60.9,27.57 61.04,27.61 61.19,27.61C61.3,27.61 61.41,27.6 61.52,27.58C62.47,27.4 63.09,26.48 62.91,25.53C62.91,25.52 62.88,25.33 62.86,25.02C62.78,24.02 62.8,21.79 64.15,20.05C65.36,18.5 67.43,17.62 70.31,17.45C70.63,17.43 70.93,17.32 71.18,17.14C71.7,16.86 72.07,16.33 72.1,15.69C72.14,14.73 71.4,13.91 70.43,13.86"></path>
</svg>
